X:1
T:Title
%%score 1 2
L:1/8
Q:1/4=95
M:3/4
K:F
V:1 treble nm="Grand Piano, Soprano"
V:2 bass nm="Choir Pad, Manaus, C. A. Shaw, 1892"
V:1
 [FA][FA] [FA]3 [FA] | [Fd][F=B] [Fc]2 [FA]2 | [EB]>[FA] [EG]3 [EG] | [CF][EG] [FA]4 | %4
w: By~C.~A.~Shaw,~1892 * * *||||
 [FA][FA] [FA]3 [FA] | [Fd][F=B] [Fc]2 [FA]2 | [Fc][Fd] [Fc]3 [EB] | [FA][EG] F4 | %8
w: ||||
 [DB][DB] [DB]3 [DB] | (3[F-B][Fc][Fd] [Fc]2 [FA]2 | [Fc][Fd] [Ec]3 [EG] | [FA][GB] [FA]4 | %12
w: ||||
 [DB][DB] [DB]3 [DB] | (3[F-B][Fc][Fd] [Gc]2 [FA]2 | [Fc][Fd] [Fc]3 [EB] | [FA][EG] F4- | F4 z2 |] %17
w: |||||
V:2
 [F,C][F,C] [F,C]3 [F,C] | [F,B,][F,_A,] [F,=A,]2 [F,C]2 | [G,C]>[F,C] [C,B,]3 [C,B,] | %3
 [C,A,][C,C] [F,C]4 | [F,C][F,C] [F,C]3 [F,C] | [F,B,][F,_A,] [F,=A,]2 [F,C]2 | %6
 [F,A,][B,,B,] [C,A,]3 [C,G,] | [C,C][C,B,] [F,A,]4 | [B,,B,][B,,B,] [B,,B,]3 [B,,B,] | %9
 (3[D,B,][C,A,][B,,B,] [F,A,]2 [F,C]2 | [F,A,][B,,B,] [C,G,]3 [C,C] | [C,C][C,C] [F,C]4 | %12
 [B,,B,][B,,B,] [B,,B,]3 [B,,B,] | (3[D,B,][C,A,][B,,B,] [F,A,]2 [F,C]2 | %14
 [F,A,][B,,B,] [C,A,]3 [C,G,] | [C,C][C,B,] [F,A,]4- | [F,A,]4 z2 |] %17

